X:1641
T:the Twilight Star
%S:s:2 b:12(6+6)
B:O'Neill's 1850 #1641
M:2/4
L:1/16
K:G
D2 |: GBAF GDB,D | GBec d2ef | [1,3 gfed cBAG | FGAB ADEF :|[2,4 gfgd ecAF | G2G2 G2 :|
|: Bc | d2dB g2gd | e2ec a2ag |[1,3 f2fe dcBA | Bed^c d2  :|[2,4 fgfe dcBA | G2G2 G2 :|
